X: 8057
T: Connie The Soldier
R: jig
M: 6/8
K: Dmajor
A3 A2B|=cAG E2D|DGG DEG|AGE =cAG|
A2G A2d|=cAG E2D|DEG AGE|1 EDC DEG:|2 EDC D2e||
|:fdd edc|edc d2e|f2f ~e2d|=cAG Ade|
fed ~e2d|=cAB ~c3|=cAG EAG|1 EDC D2e:|2 EDC DEG||
A3 ~B3|=cBc E2D|EFG EFG|ABA GED|
A3 ~B3|=cBc E2g|fed cAG|1 ~F3 EFG:|2 FAD Dfg||
|:~f3 efg|fdA B/c/de|~f3 ged|cdB A2f|
efg efg|agf dB=c|~A3 EFG|1 FAD Dfg:|2 ~F3 EFG||
A3 AGA|=cBc ~E2D|EGG EFG|AGE GED|
EAA AGA|=cBc ~E2D|~d3 AGE|FDD D3|
A3 B3|=cBc ~E2D|EFG EFG|ABA GED|
EAA AGA|=cBc ~E2g|fed cAG|FGE D2g||
fdd edd|fdc d2e|fed edB|cAG A3|
efg efg|age ~d3|AcG FGE|FDD D2g|
fdd edd|fdc d2g|~f3 ged|cAG A3|
efg efg|bge d2c|AcG FGE|FDD D3||

